X:328
M:C
L:1/8
K:E Minor
e|B<E B>A F<D D>d|B<E B>A B<E B>A|B<dA<d F<D D>d|B<E B>A G<E E>e|
g|e<B e>G d<DA>F|e<B e>g e<B e>g|e>fg>e d<D A>F|B<E B>A B<E E>g|
e<B e>g d>D AG/F/|e>Be>g Be/f/ g>e|d>fB>d F>D AG/F/|B<E B>A G<EE||

